X:1
T:Franz Liszt (1811 - 1886)
T:La Campanella Liszt
%%score { ( 1 3 4 7 ) | ( 2 5 6 ) }
L:1/8
Q:1/4=111
M:6/8
K:B
V:1 treble nm="Piano"
V:3 treble 
V:4 treble 
V:7 treble 
V:2 treble 
V:5 treble 
V:6 treble 
V:1
!p!"^Allegretto" z2 z z!8va(! .[d'd''].[d'd''] | .[d'd''] z z z .[d'd''].[d'd''] | %2
 .[d'd''] z .[d'd''].[d'd''] z .[d'd''] | %3
.[d'd''][Q:1/4=44]"^44" !fermata!z[Q:1/4=111]"^111" d d' d' c' | b b a g ^^f g | %5
 a d!8va)! d e d c | B B A G ^^F G | A D x!8va(! d' d' c' | b b a g ^^f g | a d!8va)! d e d c | %10
!8va(! d x !>!d' d x !>!d'!8va)! | z z!8va(! .d/.d'/ .d''/.d'/.d''/.d'/.d''/.c'/ | %12
{/c'} b b a{/a} g ^^f g |{^^fg} a d d!8va)!{/^f} e d c | B B A G ^^F G | A D x!8va(! d' d' c' | %16
{/c'} b b a{/a} g ^^f g |{^^fg} a d d{/^f} e d c | d x !>!d' d x !>!d'!8va)! | %19
[I:staff +1] .G,,/.B,/[I:staff -1].D/.G/.B/.g/ x x2 || %20
 z z!p![I:staff +1] .B/[I:staff -1].[^^FA]/[I:staff +1] .B/[I:staff -1].[^F=A]/[I:staff +1] .B/[I:staff -1].[^E^G]/[I:staff +1] .B/[I:staff -1].[=E=G]/ | %21
 (c/4B/4A/4B/4).F/.f'/.B/.f'/ (d/4c/4^B/4c/4).F/.f'/.c/.f'/ | %22
 (e/4d/4^^c/4d/4).B/.f'/[I:staff +1] .d/[I:staff -1].[B^^c]/[I:staff +1] .d/[I:staff -1].[A^c]/[I:staff +1] .d/[I:staff -1].[=A^B]/[I:staff +1] .d/[I:staff -1].[G=B]/ | %23
 (^e/4d/4^^c/4d/4).A/.a'/.d/.a'/ (f/4e/4^^d/4e/4).A/.a'/.e/.a'/ | %24
 (g/4f/4^e/4f/4).d/.a'/[I:staff +1] .f/[I:staff -1].[^^c^e]/[I:staff +1] .f/[I:staff -1].[^c=e]/[I:staff +1] .f/[I:staff -1].[^Bd]/[I:staff +1] .f/[I:staff -1].[=B=d]/ | %25
 (g/4f/4^e/4f/4).c/.c''/.f/.c''/ (a/4g/4^^f/4g/4).c/.c''/.g/.c''/ | %26
!8va(! .a/.b/c'.b/.a/ .g/.a/b.a/.g/ | .f/.g/a.g/.f/ .^e/.f/g.d/.e/ | %28
 .f!8va)! z z .!^!G/.g/!8va(!.g'/.g/.g'/.f/ | .g'/.e/.f''/.g/.e''/.g/ .d''/.g/.c''/.g/.d''/.g/ | %30
 .e''/.g/.c''/!8va)!.G/ x .!^!F/.f/!8va(!.f'/.f/.f'/.f/ | %31
 .f'/.d/.e''/.f/.d''/.f/ .c''/.f/.b'/.f/.c''/.f/ | %32
 .d''/.f/.b'/!8va)!.F/ z .!^!D/.d/.d'/.d/.d'/.^^c/ | .d'/.^c/.d'/.c/.d'/.B/ .e/.a/.c/.e/.B/.^e/ | %34
 .^^f/.a/.b/.a/ z!8va(! .!^!d/.d'/.d''/.d'/.d''/.^^c'/ | %35
!<(! .d''/.^c'/.d''/.c'/.d''/.b/!<)! .e'/.=a'/.c'/.e'/.b/.^e'/ | %36
 .[^a^^f']/.[d'^a']/ x x .d''/!>!.d'/ x x | .d''/!>!.d'/ x x .d''/!>!.d'/ x .d''/!>!.d'/ | %38
 x !>!.d''/.d'/ x!<(! .d''/.^^g/.d''/.a/.d''/.b/ | %39
 .d''/.^b/.d''/.c'/.d''/.^^c'/ .d''/.d'/.d''/.d'/.d''/!<)!.d'/ | %40
 .d''/.d'/.d''/!>(!.d'/.d''/.d'/ .d''/.d'/.d/.d'/.d''/!>)!.d'/ | %41
!p! .d/.d'/.d''/.d'/.d/.d'/!pp! .d''/.d'/.d/.d'/.d''/.d'/ | %42
 .d/.d'/.d''/.d'/.d/.d'/ .d''/.d'/.d/.d'/.d''/.d'/ | %43
 .d/.d'/.d''/.d'/.d/.d'/ .d''/.d'/.d/.d'/.d''/.d'/ | %44
 .d/.d'/.d''/.d'/.d/.d'/ .d''/.d'/.d/.d'/.d''/.d'/ | %45
 .d/.d'/.d''/.d'/.d/.d'/ .d''/.d'/.d/.d'/.d''/.d'/ | %46
 .d/.d'/.d''/.d'/.d/.d'/ .d''/.d'/.d/.d'/.d''/.d'/ | %47
 .d/.d'/.d''/.d'/.d/.d'/ .e/.d'/.d/.d'/.c/.d'/ | %48
[Q:1/4=101]"^poco rit." .d/.d'/.g/.b/.d'/.d''/ .d/.d'/.^^f/.a/.d'/.d''/!8va)! | %49
 z z!8va(! (3d/d'/d'/ (3d'/d'/d''/(3d'/d'/d''/(3c'/c'/c''/ | %50
 (3b/b/b'/(3b/b/b'/(3a/a/a'/ (3g/g/g'/(3^^f/f/^^f'/(3g/g/g'/ | %51
 (3a/a/a'/!8va)!(3d/d/d'/(3d/d/d'/ (3e/e/e'/(3d/d/d'/(3c/c/c'/ | %52
 (3B/B/b/(3B/B/b/(3A/A/a/ (3G/G/g/(3^^F/F/^^f/(3G/G/g/ | %53
 (3A/A/a/(3D/D/d/(3d/d/d/!8va(! (3d'/d'/d''/(3d'/d'/d''/(3c'/c'/c''/ | %54
 (3b/b/b'/(3b/b/b'/(3a/a/a'/ (3g/g/g'/(3^^f/f/^^f'/(3g/g/g'/ | %55
 (3a/a/a'/!8va)!!<(!(3d/d/d'/(3d/d/!<)!d'/!>(! (3e/e/e'/(3d/d/d'/(3c/c/!>)!c'/ | %56
 (3d/d/d'/(3e/e/d'/!<(!(3^e/e/d'/ (3f/f/d'/(3^^f/f/d'/(3g/g/!<)!d'/ | %57
 (3^^g/g/d'/(3a/a/d'/(3b/b/d'/ (3^b/b/d'/(3c'/c'/d'/(3^^c'/c'/d'/ | %58
!8va(! (3d'/d'/d''/(3e'/e'/d''/!>(!(3^e'/e'/d''/ (3f'/f'/d''/(3^^f'/f'/d''/(3g'/g'/!>)!d''/!8va)! | %59
 z[Q:1/4=50]"^50" !fermata!z ||[Q:1/4=101]"^101" B.B/.B/.B/.B/.B/.B/ | %61
!p! (c/4B/4A/4B/4) F/4f/4f/4f/4 B/4b/4b/4b/4 c/4c'/4c'/4c'/4 f/4f'/4f'/4f'/4!8va(!(3c'/[f'c'']/[f'c'']/ | %62
 (3d'/[f'd'']/[f'd'']/ x!8va)! d .d/.d/.d/.d/.d/.d/ | %63
 (^e/4d/4^^c/4d/4) A/4a/4a/4a/4 d/4d'/4d'/4d'/4 ^e/4^e'/4e'/4e'/4!8va(! a/4a'/4a'/4a'/4(3e'/[a'^e'']/[a'e'']/ | %64
 (3f'/[a'f'']/[a'f'']/ x!8va)! f .f/.f/.f/.f/.f/.f/ | %65
 (g/4f/4^e/4f/4) c/4c'/4c'/4c'/4 f/4f'/4f'/4f'/4!8va(! g/4g'/4g'/4g'/4(6:4:6c'/[g'c'']/[g'c'']/[g'c'']/[g'c'']/[g'c'']/ | %66
 c''/4d''/4c''/4d''/4c''/4d''/4c''/4d''/4c''/4d''/4c''/4d''/4 b'/4c''/4b'/4c''/4b'/4c''/4b'/4c''/4b'/4c''/4b'/4c''/4 | %67
 a'/4b'/4a'/4b'/4a'/4b'/4a'/4b'/4a'/4b'/4a'/4b'/4 g'/4a'/4g'/4a'/4g'/4a'/4g'/4a'/4g'/4^d'/4=e'/4^e'/4 | %68
 (5:4:5f'/4g'/4f'/4g'/4f'/4!tenuto!f/4f'/4g'/4f'/4 !tenuto!^^f/4^^f'/4g'/4f'/4 !tenuto!g/4g'/4=a'/4g'/4 x/4 x/4 x/4 x/4 x/4 x/4 (3x/4 x/4 x/4 | %69
 x f'' e'' d'' c'' d'' | %70
 e'' c''/ z/ =g/4=g'/4=a'/4g'/4 f/4f'/4^g'/4f'/4 x/4 x/4 x/4 x/4 x/4 x/4 (3x/4 x/4 x/4 | %71
 x e'' d'' c'' b' c'' | %72
 d'' b'/ z/ !^!^^c/4^^c'/4d'/4c'/4 !>!d/4d'/4e'/4d'/4e'/4d'/4e'/4d'/4e'/4d'/4e'/4d'/4 | %73
 (16:12:16e'/4d'/4^^c'/4d'/4e'/4^e'/4f'/4!<(!^^f'/4g'/4=a'/4^a'/4b'/4^b'/4c''/4^^c''/4!<)!d''/4 | %74
 (15:12:15=e''/4f''/4e''/4d''/4^^c''/4^c''/4^b'/4=b'/4a'/4^^g'/4^g'/4^^f'/4^f'/4^e'/4=e'/4 | %75
 d'!8va)! A/4a/4b/4a/4 ^^c/4^^c'/4d'/4c'/4 d/4d'/4e'/4d'/4e'/4d'/4e'/4d'/4e'/4d'/4e'/4d'/4 | %76
!8va(! (16:12:4e'/4d'/4^^c'/4d'/4!<(! z3/16 (16:12:27^e'/4f'/4^^f'/4g'/4=a'/4^a'/4b'/4^b'/4c''/4^^c''/4!<)!d''/4 (15:12:16=e''/4 f''/4 e''/4 d''/4 c''/4^c''/4b'/4=b'/4a'/4^^g'/4^g'/4^f'/4^^f'/4 z/12 e'/4 =e'/4 x7/10 | %77
 (17:12:17d'/4e'/4d'/4^^c'/4d'/4e'/4^e'/4f'/4^^f'/4g'/4=a'/4^a'/4b'/4^b'/4c''/4^^c''/4d''/4 (15:12:15e''/4f''/4e''/4d''/4^^c''/4^c''/4^b'/4=b'/4a'/4=a'/4g'/4^^f'/4^f'/4^e'/4=e'/4 | %78
!<(! (17:12:17d'/4e'/4d'/4^^c'/4d'/4e'/4^e'/4f'/4^^f'/4g'/4=a'/4^a'/4=b'/4^b'/4c''/4=d''/4!<)!^d''/4!mf! (24:12:24e''/4f''/4e''/4d''/4 ^^c''/4d''/4c''/4^c''/4 ^b'/4c''/4b'/4=b'/4 a'/4b'/4a'/4=a'/4 g'/4a'/4g'/4^^f'/4 ^f'/4=g'/4f'/4^e'/4 | %79
 (12:6:48=e'/4^f'/4e'/4d'/4 =d'/4^d'/4=d'/4c'/4 ^b/4c'/4b/4=b/4!8va)! ^a/4b/4a/4=a/4 g/4a/4g/4^^f/4 ^f/4g/4f/4^e/4 =e/4f/4e/4d/4 ^^c/4d/4c/4^c/4 ^B/4c/4B/4=B/4 ^A/4B/4A/4=A/4 G/4A/4G/4^^F/4 ^F/4^^F/4^F/4^E/4 | %80
!p! (24:12:24=E/4^^C/4E/4D/4^E/4=E/4F/4^E/4^^F/4^F/4G/4^^F/4=A/4G/4^A/4^^G/4B/4A/4^B/4=B/4c/4^B/4^^c/4^c/4 x x2 | %81
!8va(! x3 x3 |!mf! !^!Td''3 !^!Td''3 | %83
!p! x/4 x/4 x/4 x/4 x/4 x/4 x/4 x/4 x/4 x/4 x/4 x/4 d''/4e''/4d''/4e''/4d''/4e''/4d''/4e''/4d''/4e''/4d''/4e''/4 | %84
 d''/4e''/4d''/4e''/4d''/4e''/4d''/4e''/4d''/4e''/4d''/4e''/4 d''/4e''/4d''/4e''/4d''/4e''/4d''/4e''/4d''/4e''/4d''/4e''/4 | %85
 d''/4e''/4d''/4e''/4d''/4e''/4d''/4e''/4d''/4e''/4d''/4e''/4 d''/4e''/4d''/4e''/4d''/4e''/4d''/4e''/4d''/4e''/4d''/4e''/4 | %86
 d''/4e''/4d''/4e''/4d''/4e''/4d''/4e''/4d''/4e''/4d''/4e''/4 d''/4e''/4d''/4e''/4d''/4e''/4d''/4e''/4d''/4e''/4d''/4e''/4 | %87
 d''/4e''/4d''/4e''/4d''/4e''/4d''/4e''/4d''/4e''/4d''/4e''/4 d''/4e''/4d''/4e''/4d''/4e''/4d''/4e''/4d''/4e''/4d''/4e''/4 | %88
 d''/4e''/4d''/4d'/4d'/4e'/4d'/4d/4(3d'/e'/d'/ d''/4e''/4d''/4d'/4d'/4e'/4d'/4d/4(3d'/e'/d'/ | %89
 d''/4e''/4d''/4d'/4d'/4e'/4d'/4d/4(3d'/e'/d'/ d''/4e''/4d''/4d'/4d'/4e'/4d'/4d/4(3d'/e'/d'/ | %90
 d''/4e''/4d''/4d'/4 x/ x/ (2:1:1!wedge!.[gd']2 d''/4e''/4d''/4d'/4 z/ x/ (2:1:1!wedge!.[^^fd']2!8va)! | %91
 z z!8va(! !wedge!.d !wedge!.d' !wedge!.d' !wedge!.c' | %92
!p! !wedge!.b !wedge!.b !wedge!.a !wedge!.g !wedge!.^^f !wedge!.g | .a .d .d!8va)! .e .d .c | %94
 .B .B .A .G .^^F .G | .A .D .d!8va(! .d' .d' .c' | .^b .b .=a .g .g!8va)! .f | %97
 e!<(! c d e!<)!!>(! d c!>)! | %98
[Q:1/4=80]"^80" (25:12:25d/4d'/4e/4^e/4f/4^^f/4g/4=a/4^a/4b/4^b/4c'/4^^c'/4d'/4=e'/4^e'/4f'/4^^f'/4g'/4=a/4^a/4=b/4^b/4^c'/4^^c'/4 (21:12:21d'/4^f'/4=e'/4^c'/4^a/4^^f/4^^c/4d/4^f/4=e/4^c/4A/4^^f/4e/4c/4A/4^^F/4E/4C/4A,/4^^F,/4 | %99
!pp![I:staff +1] (6:4:6(G,,/4D,/4G,/4[I:staff -1]B,/4D/4G/4)[I:staff +1](6:4:6(B/4d/4g/4!8va(![I:staff -1]b/4d'/4[Q:1/4=30]"^30"b'/4)!fermata!g'!8va)! || %100
[Q:1/4=111]"^più mosso"!p! z/ .[Bb]/.[Bb]/.[Bb]/.[Bb]/.[Bb]/ | %101
 .b/ x/ .f/ x/ .b/ x/ .c'/ x/ .f/ x/ .c'/ x/ | %102
 .d'/.F/.d/.b/.d'/.b'/ z/!<(! .[dd']/.[dd']/.[dd']/.[dd']/!<)!.[dd']/ | %103
 .d'/ x/ .a/ x/ .d'/ x/ .^e'/ x/ .a/ x/ .^e'/ x/ | %104
 .f'/.A/.f/.d'/!8va(!.f'/.d''/!8va)! z/!<(! .[ff']/.[ff']/.[ff']/.[ff']/!<)!.[ff']/ | %105
 .f'/ x/ .c'/ x/ .f'/ x/ .g'/ x/ .c'/ x/ .g'/ x/ | %106
!8va(! .[c'f'a']/.[c'g'b']/.[c'a'c'']/.[c'a'c'']/.[c'g'b']/.[c'f'a']/ .[bd'g']/.[c'd'a']/.[d'b']/.[d'b']/.[c'd'a']/.[bd'g']/ | %107
 .[ac'f']/.[bc'g']/.[c'a']/.[c'a']/.[bc'g']/.[ac'f']/ .[gc'^e']/.[ac'f']/.[bc'g']/.[bc'g']/.[fc'd']/.[gc'e']/ | %108
 !wedge!.[fc'f']!8va)! z z!<(! x!<)! x2 | %109
!8va(! !^![gg']!p! [f'f'']/[f'f'']/[e'e'']/[e'e'']/[d'd'']/[d'd'']/[c'c'']/[c'c'']/[d'd'']/[d'd'']/ | %110
 [e'e'']!8va)! z z!<(! x!<)! x2 | %111
 !^![ff']!p!!8va(! [e'e'']/[e'e'']/[d'd'']/[d'd'']/ [c'c'']/[c'c'']/[bb']/[bb']/[c'c'']/[c'c'']/ | %112
 [d'd'']!8va)! z z!<(! z[K:bass] x!<)! x | %113
[K:treble]!<(! !^![dd'] [dd']/[dd']/[dd']/!<)![dd']/ [ee']/[dd']/[cc']/[Bb]/[Aa]/[Gg]/ | %114
 [^^F^^f] z z z[K:bass] x2 | %115
[K:treble] !^![dd']!<(!!8va(! [d'd'']/[d'd'']/[d'd'']/[d'd'']/!<)! [e'e'']/[d'd'']/[c'c'']/[bb']/[aa']/[gg']/!8va)! | %116
 [^^f^^f']/[^f^f']/[^e^e']/[=e=e']/[^^c^^c']/[dd']/ !>![ee']/[dd']/[^c^c']/[Bb]/[Aa]/[Gg]/ | %117
 [^^F^^f]/[^F^f]/[^E^e]/[=E=e]/[^^C^^c]/[Dd]/ [Ee]/[Dd]/[^C^c]/[B,B]/[A,A]/[G,G]/ | %118
 ^^F/^F/^E/=E/^^C/D/ E/D/^C/[I:staff +1][E,B,]/[^E,A,]/[E,G,]/ | %119
 ^^F,[Q:1/4=131]"^131"[I:staff -1] x/ x/ x/ x/ x/ x/ x/ x/ x/ x/ | %120
 [Dd]/[I:staff +1][D,D]/[I:staff -1][^^G^^g]/[I:staff +1][^^G,^^G]/[I:staff -1][Aa]/[I:staff +1][A,A]/[I:staff -1][^^c^^c']/[I:staff +1][^^C^^c]/[I:staff -1][dd']/[I:staff +1][Dd]/[I:staff -1][^^g^^g']/[I:staff +1][^^G^^g]/ | %121
!8va(!"^<font size=\"11.9992\"/><font face=\"Times New Roman\"/><i>8va</i>"[I:staff -1] [aa']/!8va)![I:staff +1][Aa]/!8va(![I:staff -1][^^c'^^c'']/!8va)![I:staff +1][^^cc']/!8va(![I:staff -1][d'd'']/!8va)![I:staff +1][dd']/!8va(![I:staff -1][c'c'']/!8va)![I:staff +1][cc']/!8va(![I:staff -1][d'd'']/!8va)![I:staff +1][dd']/!8va(![I:staff -1][c'c'']/!8va)![I:staff +1][cc']/ | %122
!8va(![I:staff -1] [d'd'']/!8va)![I:staff +1][^c^c']/!8va(![I:staff -1][d'd'']/!8va)![I:staff +1][Aa]/!8va(![I:staff -1][d'd'']/!8va)![I:staff +1][^^F^^f]/!8va(![I:staff -1][d'd'']/!8va)![I:staff +1][Dd]/!8va(![I:staff -1][d'd'']/!8va)![I:staff +1][Cc]/!8va(![I:staff -1][d'd'']/!8va)![I:staff +1][A,A]/ | %123
!8va(![I:staff -1] [d'd'']/!8va)![I:staff +1][^^F,^^F]/!8va(![I:staff -1][d'd'']/!8va)![I:staff +1][D,D]/!8va(![I:staff -1][d'd'']/!8va)![I:staff +1][C,C]/!8va(![I:staff -1][d'd'']/!8va)![I:staff +1][A,,A,]/!8va(![I:staff -1][d'd'']/!8va)![I:staff +1][^^F,,^^F,]/!8va(![I:staff -1][d'd'']/!8va)![I:staff +1][D,,D,]/ | %124
[Q:1/4=111]"^111"!8va(![I:staff -1] [d'd'']/[d'd'']/[d'd'']/[d'd'']/[d'd'']/[d'd'']/ [d'd'']/[d'd'']/[d'd'']/[d'd'']/[d'd'']/[d'd'']/ | %125
 [d'd'']/[d'd'']/[d'd'']/[d'd'']/[d'd'']/[d'd'']/ [d'd'']/[d'd'']/[d'd'']/[d'd'']/[c'c'']/[c'c'']/ | %126
 [bb']/[bb']/[bb']/[bb']/[aa']/[aa']/ [gg']/[gg']/[^^f^^f']/[ff']/[gg']/[gg']/!8va)! | %127
 [aa']/[aa']/[dd']/[dd']/[dd']/[dd']/ [ee']/[ee']/[dd']/[dd']/[cc']/[cc']/ | %128
 [Bb]/[Bb]/[Bb]/[Bb]/[Aa]/[Aa]/ [Gg]/[Gg]/[^^F^^f]/[Ff]/[Gg]/[Gg]/ | %129
 [Aa]/[Aa]/[Dd]/[Dd]/[dd']/[dd']/!8va(! [d'd'']/[d'd'']/[d'd'']/[d'd'']/[c'c'']/[c'c'']/ | %130
 [^b^b']/[bb']/[bb']/[bb']/[=a=a']/[aa']/!8va)! [gg']/[gg']/[gg']/[gg']/[ff']/[ff']/ | %131
 [ee'] [E=Ac]/[EAc]/[EAd]/[EAd]/ [EAe]/[EAe]/[EAd]/[EAd]/[EAc]/[EAc]/ | %132
 [DGBd]/[Ee]/[^E^e]/[Ff]/[^^F^^f]/[Gg]/[=A=a]/[^A^a]/[Bb]/[^B^b]/[cc']/[^^c^^c']/ | %133
!8va(! [d^^fad']/[ee']/[^e^e']/[^ff']/[^^f^^f']/[gg']/[=a=a']/[^a^a']/[bb']/[c'c'']/[^^c'^^c'']/[d'd'']/!8va)! | %134
!ff![Q:1/4=119]"^Animato" [B,DG] z [Bdb] [Ada]/[Bb]/[cc'][Bdb]/[Aa]/ | %135
 [Bdb]/[cc']/[dd'][cc']/[Bb]/ [Ada]/[Bb]/[cc'][Bdb]/[Aa]/ | %136
 [Bdb]/[Aa]/[Gg]!8va(! [bd'b'] [ad'a']/[bb']/[c'c''][bd'b']/[aa']/ | %137
 [bd'b']/[c'c'']/[d'd''][c'c'']/[bb']/ [ad'a']/[bb']/[c'c''][bd'b']/[aa']/ | %138
 [bd'b']/[aa']/[gg']!8va)! [DBd] [DAd]/[DBd]/[Dcd][DBd]/[DAd]/ | %139
 [DBd]/[DAd]/ [DGd] !>!!wedge!.[dgd'] [DAd]/[DBd]/[Dcd][DBd]/[DAd]/ | %140
 [DBd]/[DAd]/[DGd] !>!!wedge!.[dgd'] [DBd]/[DAd]/[DGd] !>!!wedge!.[gd'g'] | %141
 [DBd]/[DAd]/[DGd]!8va(! !>!!wedge!.[bd'b']!8va)! [DBd]/[DAd]/[DGd]!8va(! !>![d'g'd'']- | %142
 [d'g'd''][d'g'd''][d'g'd''][d'g'd''][d'g'd''][d'g'd''] | [d'g'd'']!8va)! z z [B,DG] z z | %144
 [gbd'g']6 |] %145
V:2
 z .[Dd].[Dd] .[Dd] z z | z .[Dd].[Dd] .[Dd] z z | z .[Dd] z z .[Dd] z | !fermata!z2 z z2 z | %4
 !arpeggio!.[G,DB] z z !arpeggio!.[B,Gd] z z | !arpeggio!.[DA^^f] z z !arpeggio!.[^^FA] z z | %6
 G z z !arpeggio!.[B,^^C^E] z z | .[D^^F] z z z2 z | !arpeggio!.[G,DB] z z !arpeggio!.[B,Gd] z z | %9
 !arpeggio!.[DA^^f] z z !arpeggio!.[^^FA] z z | [GB] z z [D^^Fc] z z | .G,/.D/.B/.g/ z z2 z | %12
[K:bass] .G,,.[D,B,] z .B,,.[G,D] z | .D,.[A,^^F] z[K:treble] .[^^FA].[FA] z | %14
 .G.G z .[B,^^C^E].[B,CE] z |[K:bass] [D,^^F] z z z2 z | .G,,.[D,B,] z .B,,.[G,D] z | %17
 .D,.[A,^^F] z[K:treble] [CGA][DGA][EGA] | [DGB] z z[K:bass] [D,C^^F] z z | %19
 x3[K:treble] .b/.d'/.g'/ z/ z || z z x4 |[K:bass] z .[B,D].[F,DF] z .[A,E].[F,EF] | %22
 z .[B,D][K:treble] x4 | z .[DF].[A,FA] z .[^^CG].[A,GA] | z .[DF] x4 | %25
 z .[FA].[CAc] z .[^EB].[CBc] | .f/.g/a.g/.f/ .B/.c/d.c/.B/ | .A/.B/c.B/.A/ .G/.A/B.F/.G/ | %28
 .A!<(! .F/.f/.^^F/!<)!.^^f/ z .[EG].[DG] | .[CG] .d.c .^B.A.B | .c.e !>!.=G/.=g/ z .[DF].[CF] | %31
 .[B,F] .c.B .A.G.A | .B.d !>!.^^C/.^^c/ z .[^^F,D].[G,^E] | %33
 .[A,^^F].[A,F].[B,G] .[CA] z .[^^C^E] | .[D^^F] z !>!.^^c/.^^c'/ z .[^^Fd].[G^e] | %35
 .[A^^f].[Af].[Bg] .[c=a] z [^^c^e] | %36
 .[d^^f]!<(! !>!.^^c/.^^c'/.d/!<)!.d'/ x!<(! !>!.d/.d'/.e/!<)!.e'/ | %37
 x!<(! !>!.e/.e'/.^e/!<)!.^e'/ x .f/.f'/ x | .^^f/.^^f'/ x .g/.g'/ z z2 | z6 | z6 | %41
 z z .D .d z .c | .B.B.A .G.^^F.G | .A.D .D .E.D.C |[K:bass] .B,.B,.A, .G,.^^F,.G, | %45
 (A,.D,/) z/ z3/4[K:treble] (D/4 .d) z .c | .B.B.A .G.^^F.G | .A.D z [CGA][DGA][EGA] | %48
 [DGB] z z [D^^Fc] z z | .G,/.D/.B/.g/ z z2 z |[K:bass] G,, [D,B,][D,B,] B,, [G,D][G,D] | %51
 D, [A,^^F][A,F][K:treble] ^^F, [DA][DA] | G, [DG][DG] B, [^^C^E][CE] |[K:bass] D, [A,^^F] z z2 z | %54
 G,, [D,B,][D,B,] B,, [G,D][G,D] | D,[K:treble] .[A,^^F].[FA] .[GB].[^FA].[EG] | .[DGB] z z z2 z | %57
[K:bass] [D,C^^F] z z z2 z | !arpeggio![G,,D,B,G] z z z2 z | z !fermata!z || %60
[K:treble] (G/=G/).F/.^E/.=E/.D/.=D/.C/ | z[K:bass] .[B,^D].[F,DF] z .[A,E].[F,A,F] | %62
 .B,,[F,D]/ z/[K:treble] (B .A/).^^G/.^G/.^^F/.^F/.^E/ | z .[DF].[A,FA] z .[^^CG].[A,CA] | %64
[K:bass] .D,.[A,F]/ z/[K:treble] (d/^^c/).^c/.^B/.=B/.A/.^^G/.^G/ | z .[FA].[CAc] z .[^EB].[CEc] | %66
 F .[fa]/.[gb]/ .[ac'] B, .[Bg]/.[ca]/ .[db] | C .[Af]/.[Bg]/ .[ca] C .[G^e]/.[Af]/.[Bg] | %68
 !wedge!.[Fca] z z z !arpeggio!!wedge!.[=Eg]!arpeggio!!wedge!.[Df] | %69
 !arpeggio!!wedge!.[Ce] .d' .c' .^b .^a .b | %70
 .c' .e'/ z/ z z !arpeggio!!wedge!.[Df]!arpeggio!!wedge!.[Ce] | %71
 !arpeggio!!wedge!.[B,d] .c' .b .a .g .a | .b .d'/ z/ z z .[D^^Fd].[^EG^^c] | .[^^FA^c] z z | %74
 .[GBe] z z | !arpeggio![D^^f] z z z .[D^^Fd].[^EG^^c] | .[^^FA^c] z z .[GBe] z z | %77
 !arpeggio![DA^^f] z z !arpeggio![G,B] z z |[K:bass] [D,^^F] z z [G,,B,] x2 | x6 | %80
 !arpeggio![^^F,,A,C] x x (24:12:24x/4 x/4 x/4 x/4 x/4 x/4 x/4 x/4 x/4 x/4 x/4 x/4 x/4 x/4 x/4 x/4 x/4 x/4 x/4 x/4 x/4 x/4 x/4 x/4 | %81
!8va(! (48:24:48x/4 x/4 x/4 x/4 x/4 x/4 x/4 x/4 x/4 x/4 x/4 x/4 x/4 x/4 x/4 x/4 x/4 x/4 x/4 x/4 x/4 x/4 x/4 x/4 x/4 x/4 x/4 x/4 x/4 x/4 x/4 x/4 x/4 x/4 x/4 x/4 x/4 x/4 x/4 x/4 x/4 x/4 x/4 x/4 x/4 x/4 x/4 x/4 | %82
 x3 x3!8va)! |[K:treble] z z .d .d' x .c' | .b .b .a .g .^^f .g | (ad) .d .e .d .c | %86
 .[GB].[GB].[^FA] .G.^^F.G | (AD) z/ (D/ .d) .d .c | .B .B .A .G .^^F .G | (AD) .D .G.^F.E | %90
 !wedge!.D .[Bg]/.[db]/ x D .[A^^f]/.[ca]/ x | (G,{DB}g/) z/ z z2 z | %92
[K:bass] !wedge!.[G,,,G,,] !wedge!.[D,B,D]!wedge!.[G,B,D] !wedge!.[B,,,B,,] !wedge!.[D,B,D]!wedge!.[G,B,D] | %93
 !wedge!.[D,,D,] !wedge!.[^^F,D^^F]!wedge!.[A,DF] !wedge!.^^F,,[K:treble] !wedge!.[CDA]!wedge!.[A,DA] | %94
[K:bass] !wedge!.G,, !wedge!.[DG]!wedge!.[B,D] !wedge!.E,, !wedge!.[B,^^C]!wedge!.[A,C] | %95
 !wedge!.D,, !wedge!.[^^F,A,][K:treble]!wedge!.[^^FA] !wedge!.[^^fa] z z | %96
[K:bass] .G,, .[=A,DF].[^B,DF] .^B,, .[A,DF].[B,DF] | C,[K:treble] [E=A][^B,A][CA][FA][EA] | %98
 [DGB] z z[K:bass] [D,C^^F] z z | x/ x/[K:treble] x x || z/ .G/.[=G^A]/.[F=A]/.[^E^G]/.[=E=G]/ | %101
[K:bass] .B,,/ x/ .B,/ x/ .B,,/ x/ .F,,/ x/ .A,/ x/ .F,,/ x/ | %102
 .B,,/.D/.F,/.B,,/.F,,/.B,,,/[K:treble] z/ B/-[B^^c]/.[A^c]/.[=A^B]/.[G=B]/ | %103
[K:bass] .D,/ x/ .D/ x/ .D,/ x/ .A,,/ x/ .^^C/ x/ .A,,/ x/ | %104
 .D,/.F/.A,/.D,/.A,,/.D,,/[K:treble] z/ .d/.[=d^e]/.[c=e]/.[^B^d]/.[=B=d]/ | %105
[K:bass] .F,/ x/ .F/ x/ .F,/ x/ .C,/ x/ .^E/ x/ .C,/ x/ | %106
 !wedge!.F,[K:treble] .C/.A/.f/.a/[K:bass] !wedge!.B,,[K:treble] .B,/.G/.d/.g/ | %107
[K:bass] !wedge!.C,[K:treble] .A,/.F/.c/.f/ !wedge!.C .^e/.G/.C/.B/ | %108
 !wedge!.[FA][K:bass] [F,,F,]/[F,,F,]/[^^F,,^^F,]/[F,,F,]/!ped! [G,,G,]/[G,,G,]/[I:staff -1][G,G]/[I:staff +1][K:treble][I:staff -1][G,G]/[I:staff +1][Gg]/[Gg]/ | %109
 z g/!ped-up!g/g/g/g/g/g/g/g/g/ | %110
 g[K:bass] [^G,,^G,]/[G,,G,]/[=G,,=G,]/[G,,G,]/!ped! [F,,F,]/[F,,F,]/[I:staff -1][F,F]/[I:staff +1][K:treble][I:staff -1][F,F]/[I:staff +1][Ff]/[Ff]/ | %111
 z f/!ped-up!f/f/f/f/f/f/f/f/f/ | %112
 f[K:bass] [^E,,^E,]/[E,,E,]/[=E,,=E,]/[E,,E,]/!ped! [D,,D,]/[D,,D,]/[I:staff -1][D,D]/[D,D]/[I:staff +1][K:treble][Dd]/[Dd]/ | %113
 z [D^^F]/!ped-up![DF]/[^EG]/[EG]/ [^F=A]/[FA]/[=E^^F]/[EF]/[^^C^E]/[CE]/ | %114
 D[K:bass] [A,,,A,,]/[A,,,A,,]/[^^C,,^^C,]/[C,,C,]/!ped! [D,,D,]/[D,,D,]/[I:staff -1][D,D]/[D,D]/[I:staff +1][K:treble][Dd]/[Dd]/ | %115
 z [^^Fd]/!ped-up![Fd]/[G^e]/[Ge]/ [=A^f]/[Af]/[^A^^f]/[Af]/[^^c^e]/[c^e]/ | %116
 [Ad]/[Ad]/[GB]/[GB]/[F=A]/[FA]/ [^^F^A]/[FA]/[EF]/[EF]/[^^C^E]/[CE]/ | %117
[K:bass] [A,D]/[A,D]/[G,B,]/[G,B,]/[F,=A,]/[F,A,]/ [^^F,^A,]/[F,A,]/[E,F,]/[E,F,]/[^^C,^E,]/[C,E,]/ | %118
 [A,,D,]/[A,,D,]/[G,,B,,]/[G,,B,,]/[F,,=A,,]/[F,,A,,]/ [^^F,,^A,,]/[F,,A,,]/[F,,A,,]/[F,,A,,]/[^^C,,B,,]/[C,,B,,]/ | %119
 [D,,A,,] x/ x/ x/ x/ x/ x/ x/ x/ x/ x/ | x6[K:treble] | x6 | x2!ped! x2 x3/2 x/ |[K:bass] x6 | %124
 z6!ped-up! | z z[K:treble] !wedge!.D!wedge!.d z z | %126
[K:bass] [G,,,G,,] [D,B,D]/[D,B,D]/[G,B,D] [B,,,B,,] [D,B,D]/[D,B,D]/[G,B,D] | %127
 [D,,D,][K:treble] [^^F,D^^F]/[F,DF]/[A,DF][K:bass] [^^F,,^^F,][K:treble] [CDA]/[CDA]/[CDA] | %128
[K:bass] [G,,G,][K:treble] [B,DG]/[B,DG]/[B,D][K:bass] E,, [A,^^C]/[A,C]/[A,C] | %129
 D,, [^^F,A,]/[F,A,]/[F,A,D][K:treble] [^^FAd] z z | %130
[K:bass] [G,,,G,,] [F,=A,D]/[F,A,D]/[F,A,D] [^B,,,^B,,][K:treble] [=A,D=A]/[A,DA]/[A,DA] | %131
[K:bass] [C,,C,] [E,=A,C]/[E,A,C]/[D,A,C]/[D,A,C]/ [C,A,C]/[C,A,C]/[D,A,C]/[D,A,C]/[E,A,C]/[E,A,C]/ | %132
 [D,G,B,]/[^^C,^^C]/[^C,^C]/[^B,,^B,]/[=B,,=B,]/[A,,A,]/[=A,,=A,]/[G,,G,]/[^^F,,^^F,]/[^F,,^F,]/[^E,,^E,]/[=E,,=E,]/ | %133
 [D,,^^F,,A,,D,]/[^^C,,^^C,]/[^C,,^C,]/[^B,,,^B,,]/[=B,,,=B,,]/[A,,,A,,]/[=A,,,=A,,]/[G,,,G,,]/[^^F,,,^^F,,]/[^F,,,^F,,]/[E,,,E,,]/[D,,,D,,]/ | %134
!ped! [G,,,G,,][D,,D,]/[G,,G,]/[D,D]!ped-up!!ped! [G,,,G,,][D,,D,]/[G,,G,]/[D,D]!ped-up! | %135
!ped! [G,,,G,,][D,,D,]/[G,,G,]/[D,D]!ped-up!!ped! [G,,,G,,][D,,D,]/[G,,G,]/[D,D]!ped-up! | %136
!ped! [G,,,G,,][D,,D,]/[G,,G,]/[D,D]!ped-up!!ped! [G,,,G,,][D,,D,]/[G,,G,]/[D,D]!ped-up! | %137
!ped! [G,,,G,,][D,,D,]/[G,,G,]/[D,D]!ped-up!!ped! [G,,,G,,][D,,D,]/[G,,G,]/[D,D]!ped-up! | %138
!ped! [G,,,G,,][D,,D,]/[G,,G,]/ [B,,D,B,]!ped-up! [A,,D,A,]/[B,,D,B,]/[C,D,C][B,,D,B,]/[A,,D,A,]/ | %139
!ped! [B,,D,B,]/[A,,D,A,]/ [G,,D,G,] !wedge!.[G,,,D,,G,,]!ped-up! [A,,D,A,]/[B,,D,B,]/[C,D,C][B,,D,B,]/[A,,D,A,]/ | %140
!ped! [B,,D,B,]/[A,,D,A,]/[G,,D,G,] !wedge!.[G,,,D,,G,,]!ped-up!!ped! [B,,D,B,]/[A,,D,A,]/[G,,D,G,] !wedge!.[G,,,D,,G,,]!ped-up! | %141
!ped! [B,,D,B,]/[A,,D,A,]/[G,,D,G,] !wedge!.[G,,,D,,G,,]!ped-up!!ped! [B,,D,B,]/[A,,D,A,]/[G,,D,G,]!ped-up!!ped! [G,,,D,,G,,]- | %142
 [G,,,D,,G,,] [G,,D,G,][G,DG][K:treble][Gdg][K:bass][G,DG][G,,D,G,] | %143
 [G,,,D,,G,,] z z [G,,D,G,] z z!ped-up! |[K:treble]!ped! [B,DGB]6!ped-up! |] %145
V:3
 x4!8va(! x2 | x6 | x6 | x2 .d/.d'/ .d'/.d''/.d'/.d''/.c'/.d''/ | %4
 .b/.d''/.b/.d''/.a/.d''/ .g/.d''/.^^f/.d''/.g/.d''/ | %5
 .a/.d''/.d/.d''/!8va)!.d/.d'/ .e/.d'/.d/.d'/.c/.d'/ | %6
 .B/.d'/.B/.d'/.A/.d'/ .G/.d'/.^^F/.d'/.G/.d'/ | %7
 .A/.d'/ .D/.d/.d/.d'/!8va(! .d'/.d''/.d'/.d''/.c'/.d''/ | %8
 .b/.d''/.b/.d''/.a/.d''/ .g/.d''/.^^f/.d''/.g/.d''/ | %9
 .a/.d''/.d/.d''/!8va)! .d/.d'/ .e/.d'/.d/.d'/.c/.d'/ | %10
!8va(! .d/.d'/ .g/.b/ .d'/.d''/ .d/.d'/ .^^f/.a/ .d'/.d''/!8va)! | x2!8va(! x4 | %12
 .b/.d''/.b/.d''/.a/.d''/ .g/.d''/.^^f/.d''/.g/.d''/ | %13
 a/.d''/d/.d''/d/.d'/!8va)! e/.d'/d/.d'/c/.d'/ | .B/.d'/.B/.d'/.A/.d'/ .G/.d'/.^^F/.d'/.G/.d'/ | %15
 .A/.d'/ .D/.d/.d/.d'/!8va(! .d'/.d''/.d'/.d''/.c'/.d''/ | %16
 .b/.d''/.b/.d''/.a/.d''/ .g/.d''/.^^f/.d''/.g/.d''/ | %17
 .a/.d''/.d/.d''/ .d/.d'/ .e/.g'/.d/.g'/.c/.g'/ | %18
 .d/.d'/ .g/.b/ .d'/.d''/ .d/.d'/ .^^f/.a/ .d'/.d''/!8va)! | x6 || x6 | x6 | x6 | x6 | x6 | x6 | %26
!8va(! x6 | x6 | x!8va)! x3!8va(! x2 | x6 | x3/2!8va)! x5/2!8va(! x2 | x6 | x3/2!8va)! x9/2 | %33
 x3 .e'/.d'/.c'/.b/.a/.g/ | .A/.d/.^^f/.d/ x!8va(! x3 | x3 .e''/.d''/.c''/.b'/.=a'/.g'/ | x6 | x6 | %38
 x6 | x6 | x6 | x4 .d x | x6 | x6 | x6 | x4 .d x | x6 | x2 d e d c | d x !>!d' d x !>!d'!8va)! | %49
 x2!8va(! x4 | x6 | x!8va)! x5 | x6 | x3!8va(! x3 | x6 | x!8va)! x5 | x6 | x6 |!8va(! x6!8va)! | %59
 x2 || B/A/.=A/.G/.=G/.F/.^E/.=E/ | x F B c f!8va(! c' | %62
 d'b/!8va)! z/ d/^^c/.^c/.^B/.=B/.A/.^^G/.^G/ | x A d ^e!8va(! a ^e' | %64
 f'd'/!8va)! z/ f/^e/.=e/.d/.=d/.c/.^B/.A/ | x c f!8va(! g c' x | %66
 a'/=a'/g'/^^f'/^f' g'/^^f'/^f'/^e'/d' | f'/^e'/d'/=d'/c' ^e'/^d'/=d'/c'/b | x f ^^f g{/=a'} Tg'2 | %69
 g'/4=a'/4g'/4a'/4 g'/4a'/4g'/4a'/4 g'/4a'/4g'/4a'/4 g'/4a'/4g'/4a'/4 g'/4a'/4g'/4a'/4 g'/4a'/4g'/4a'/4 | %70
 x4{/g'} Tf'2 | %71
 f'/4g'/4f'/4g'/4 f'/4g'/4f'/4g'/4 f'/4g'/4f'/4g'/4 f'/4g'/4f'/4g'/4 f'/4g'/4f'/4g'/4 f'/4g'/4f'/4g'/4 | %72
 f'/4g'/4f'/4g'/4 f'/ x/ ^^c d x2 | x3 | x3 | x!8va)! .A .^^c .d x2 |!8va(! x6 | x6 | x6 | %79
 x3/2!8va)! x9/2 | x6 |!8va(! x6 | x6 | !^!Td''3 x d'/ x/ d'/ x/ | %84
 d'/ x/ d'/ x/ d'/ x/ d'/ x/ d'/ x/ d'/ x/ | d'/ x/ d'/ x/ d'/ x/ d'/ x/ d'/ x/ d'/ x/ | %86
 d'/ x/ d'/ x/ d'/ x/ d'/ x/ d'/ x/ d'/ x/ | d'/ x/ d'/ x/ d'/ x/ d'/ x/ d'/ x/ d'/ x/ | x6 | x6 | %90
 x6!8va)! | x2!8va(! d/4d'/4e'/4d'/4 d'/4d''/4e''/4d''/4 d'/4d''/4e''/4d''/4 c'/4c''/4d''/4c''/4 | %92
 b/4b'/4c''/4b'/4 b/4b'/4c''/4b'/4 a/4a'/4b'/4a'/4 g/4g'/4a'/4g'/4 ^^f/4^^f'/4g'/4f'/4 g/4g'/4a'/4g'/4 | %93
 a/4a'/4b'/4a'/4 d/4d'/4e'/4d'/4 d/4d'/4e'/4d'/4!8va)! e/4e'/4f'/4e'/4 d/4d'/4e'/4d'/4 c/4c'/4d'/4c'/4 | %94
 B/4b/4c'/4b/4 B/4b/4c'/4b/4 A/4a/4b/4a/4 G/4g/4a/4g/4 ^^F/4^^f/4g/4f/4 G/4g/4a/4g/4 | %95
 A/4a/4b/4a/4 D/4d/4e/4d/4 d/4d'/4e'/4d'/4!8va(! d'/4d''/4e''/4d''/4 d'/4d''/4e''/4d''/4 c'/4c''/4d''/4c''/4 | %96
 ^b/4^b'/4c''/4b'/4 ^b/4b'/4c''/4b'/4 =a/4=a'/4=b'/4a'/4 g/4g'/4a'/4g'/4 g/4g'/4a'/4g'/4!8va)! f/4f'/4g'/4f'/4 | %97
 e/4e'/4f'/4e'/4 c/4c'/4d'/4c'/4 d/4d'/4e'/4d'/4 e/4e'/4f'/4e'/4 d/4d'/4e'/4d'/4 c/4c'/4d'/4c'/4 | %98
 x6 | x3/2!8va(! x3/2!8va)! || x3 | .b/.F/.[Bf]/.F/.b/.F/ .c'/.F/.[cf]/.F/.c'/.F/ | x6 | %103
 .d'/.A/.[da]/.A/.d'/.A/ .^e'/.A/.[^ea]/.A/.^e'/.A/ | x2!8va(! x!8va)! x3 | %105
 .f'/.c/.[fc']/.c/.f'/.c/ .g'/.c/.[gc']/.c/.g'/.c/ |!8va(! x6 | x6 | x!8va)! x5 |!8va(! x6 | %110
 x!8va)! x5 | x!8va(! x5 | x!8va)! x3[K:bass] x2 |[K:treble] x6 | x4[K:bass] x2 | %115
[K:treble] x!8va(! x5!8va)! | x6 | x6 | x6 | x[I:staff +1] ^^C,/ x/ D,/ x/ ^^G,/ x/ A,/ x3/2 | x6 | %121
!8va(! x/!8va)! x/!8va(! x/!8va)! x/!8va(! x/!8va)! x/!8va(! x/!8va)! x/!8va(! x/!8va)! x/!8va(! x/!8va)! x/ | %122
!8va(! x/!8va)! x/!8va(! x/!8va)! x/!8va(! x/!8va)! x/!8va(! x/!8va)! x/!8va(! x/!8va)! x/!8va(! x/!8va)! x/ | %123
!8va(! x/!8va)! x/!8va(! x/!8va)! x/!8va(! x/!8va)! x/!8va(! x/!8va)! x/!8va(! x/!8va)! x/!8va(! x/!8va)! x/ | %124
!8va(! x6 | x6 | x6!8va)! | x6 | x6 | x3!8va(! x3 | x3!8va)! x3 | x6 | x6 |!8va(! x6!8va)! | x6 | %135
 x6 | x2!8va(! x4 | x6 | x2!8va)! x4 | x6 | x6 | x2!8va(! x!8va)! x2!8va(! x | x6 | x!8va)! x5 | %144
 x6 |] %145
V:4
 x4!8va(! x2 | x6 | x6 | x6 | x6 | x2!8va)! x4 | x6 | x3!8va(! x3 | x6 | x2!8va)! x4 | %10
!8va(! x6!8va)! | x2!8va(! x4 | x6 | x3!8va)! x3 | x6 | x3!8va(! x3 | x6 | x6 | x6!8va)! | x6 || %20
 x6 | x6 | x6 | x6 | x6 | x6 |!8va(! x c'/[a'c'']/ x2 b/[d'b']/ x | x =a/[c'a']/ x2 =g/[bg']/ x | %28
 f/.[af']/!8va)! x3!8va(! g' g' | g' f'' e'' d'' c'' d'' | e'' c''!8va)! x2!8va(! f' f' | %31
 f' e'' d'' c'' b' c'' | d'' b'!8va)! x4 | x6 | x3!8va(! x3 | x6 | x6 | x6 | x6 | x6 | x6 | x6 | %42
 x6 | x6 | x6 | x6 | x6 | x6 | x6!8va)! | x2!8va(! x4 | x6 | x!8va)! x5 | x6 | x3!8va(! x3 | x6 | %55
 x!8va)! x5 | x6 | x6 |!8va(! x6!8va)! | x2 || x4 | x5!8va(! x | x3/2!8va)! x9/2 | x4!8va(! x2 | %64
 x3/2!8va)! x9/2 | x3!8va(! x3 | x6 | x6 | x6 | x6 | x6 | x6 | x6 | x3 | x3 | x!8va)! x5 | %76
!8va(! x6 | x6 | x6 | x3/2!8va)! x9/2 | %80
 x3 (24:12:10d/4 x/4 e/4 x/4 x/ ^f/4^^f/4g/4=a/4^a/4x3/8(24:12:3^b/4c'/4^^c'/4 x7/8 | %81
!8va(! (24:12:10d'/4 x/4 e'/4 x/4 x/ f'/4^^f'/4g'/4=a'/4^a'/4x3/8(24:12:3^b'/4c''/4^^c''/4 (24:12:10^d''/4 x/4 e''/4 x/4 x/ e''/4d''/4e''/4 d''/4 e''/4 x3/8 (24:12:3e''/4 d''/4 e''/4 x7/4 | %82
 x6 | x6 | x6 | x6 | x6 | x6 | x6 | x6 | x6!8va)! | x2!8va(! x4 | x6 | x3!8va)! x3 | x6 | %95
 x3!8va(! x3 | x5!8va)! x | x6 | x6 | x3/2!8va(! x3/2!8va)! || x3 | x6 | .d'/ x11/2 | x6 | %104
 .f'/ x3/2!8va(! x!8va)! x3 | x6 |!8va(! x6 | x6 | x!8va)! x5 |!8va(! x6 | x!8va)! x5 | %111
 x!8va(! x5 | x!8va)! x3[K:bass] x2 |[K:treble] x6 | x4[K:bass] x2 |[K:treble] x!8va(! x5!8va)! | %116
 x6 | x6 |[I:staff +1] ^^F,/^F,/^E,/=E,/^^C,/D,/ E,/E,/E,/ x3/2 | %119
 x[I:staff -1] ^^C/ x/ D/ x/ ^^G/ x/ A/ x/ [^^C^^c]/ x/ | x6 | %121
!8va(! x/!8va)! x/!8va(! x/!8va)! x/!8va(! x/!8va)! x/!8va(! x/!8va)! x/!8va(! x/!8va)! x/!8va(! x/!8va)! x/ | %122
!8va(! x/!8va)! x/!8va(! x/!8va)! x/!8va(! x/!8va)! x/!8va(! x/!8va)! x/!8va(! x/!8va)! x/!8va(! x/!8va)! x/ | %123
!8va(! x/!8va)! x/!8va(! x/!8va)! x/!8va(! x/!8va)! x/!8va(! x/!8va)! x/!8va(! x/!8va)! x/!8va(! x/!8va)! x/ | %124
!8va(! x6 | x6 | x6!8va)! | x6 | x6 | x3!8va(! x3 | x3!8va)! x3 | x6 | x6 |!8va(! x6!8va)! | x6 | %135
 x6 | x2!8va(! x4 | x6 | x2!8va)! x4 | x6 | x6 | x2!8va(! x!8va)! x2!8va(! x | x6 | x!8va)! x5 | %144
 x6 |] %145
V:5
 x6 | x6 | x6 | x6 | x6 | x6 | x6 | x6 | x6 | x6 | x6 | x6 |[K:bass] x6 | x3[K:treble] x3 | x6 | %15
[K:bass] x6 | x6 | x3[K:treble] x3 | x3[K:bass] x3 | x3[K:treble] x3 || x6 |[K:bass] x6 | %22
 x2[K:treble] x4 | x6 | x6 | x6 | x !arpeggio!F x2 !arpeggio!B, x | %27
 x !arpeggio!C x2 !arpeggio!C x | .F, x5 | x3 G, x2 | C x5 | x3 F, x2 | B, x5 | x6 | x6 | x6 | x6 | %37
 x6 | x6 | x6 | x6 | x6 | G, x2 B, x2 | ^^F x2 ^^F, x2 |[K:bass] G, x2 E, x2 | %45
 ^^F,2 x3/4[K:treble] x13/4 | G, x2 B, x2 | .^^F x5 | x6 | x6 |[K:bass] x6 | x3[K:treble] x3 | x6 | %53
[K:bass] x6 | x6 | x[K:treble] x5 | x6 |[K:bass] x6 | x6 | x2 ||[K:treble] x4 | x[K:bass] x5 | %62
 x2[K:treble] x4 | x6 |[K:bass] x2[K:treble] x4 | x6 | x6 | x6 | x6 | x3 G x2 | c x5 | x3 F x2 | %72
 B x5 | x3 | x3 | x6 | x6 | x6 |[K:bass] x6 | x6 | %80
 x25/8[I:staff -1] (24:12:10^^c/4[I:staff +1] x/4[I:staff -1] d/4[I:staff +1] x/4 x/[I:staff -1] ^e/4 ^f/4 ^^f/4 g/4 =a/4 x3/8 (24:12:3=b/4 ^b/4 ^c'/4 x3/4 | %81
!8va(! (24:12:10^^c'/4[I:staff +1] x/4[I:staff -1] d'/4[I:staff +1] x/4 x/[I:staff -1] ^e'/4 ^f'/4 ^^f'/4 g'/4 =a'/4 x3/8 (24:12:3=b'/4 ^b'/4 ^c''/4 (24:12:10^^c''/4[I:staff +1] x/4[I:staff -1] c''/4[I:staff +1] x/4 x/[I:staff -1] c''/4 c''/4 c''/4 c''/4 c''/4 x3/8 (24:12:3c''/4 c''/4 c''/4 x7/4 | %82
 x/4[I:staff +1] x/4 x/4 x/4 x/4 x/4 x/4 x/4 x/4 x/4 x/4 x/4 x/4 x/4 x/4 x/4 x/4 x/4 x/4 x/4 x/4 x/4 x/4 x/4!8va)! | %83
[K:treble] x6 | G x2 B x2 | ^^f x2 [^^FA] x2 | x3 E x2 | ^^F x5 | G, x2 B, x2 | ^^F x2 B,^B,C | %90
 x6 | x6 |[K:bass] x6 | x4[K:treble] x2 |[K:bass] x6 | x2[K:treble] x4 |[K:bass] x6 | %97
 x[K:treble] x5 | x3[K:bass] x3 | x[K:treble] x2 || x3 | %101
[K:bass] .B,,/.D/.[F,B,]/.D/.B,,/.D/ .F,,/.E/.[F,A,]/.E/.F,,/.E/ | x3[K:treble] x3 | %103
[K:bass] .D,/.F/.[A,D]/.F/.D,/.F/ .A,,/.G/.[A,^^C]/.G/.A,,/.G/ | x3[K:treble] x3 | %105
[K:bass] .F,/.A/.[CF]/.A/.F,/.A/ .C,/.B/.C/.B/.C,/.B/ | x[K:treble] x2[K:bass] x[K:treble] x2 | %107
[K:bass] x[K:treble] x5 | x[K:bass] x7/2[K:treble] x3/2 | x d c ^B A B | %110
 c[K:bass] x7/2[K:treble] x3/2 | x c B A G A | B[K:bass] x4[K:treble] x | x6 | %114
 x[K:bass] x4[K:treble] x | x6 | x6 |[K:bass] x6 | x6 | x6 | x3/2[K:treble] x9/2 | x6 | x6 | %123
[K:bass] x6 | x6 | x2[K:treble] x4 |[K:bass] x6 | x[K:treble] x2[K:bass] x[K:treble] x2 | %128
[K:bass] x[K:treble] x2[K:bass] x3 | x3[K:treble] x3 |[K:bass] x4[K:treble] x2 |[K:bass] x6 | x6 | %133
 x6 | x6 | x6 | x6 | x6 | x6 | x6 | x6 | x6 | x3[K:treble] x[K:bass] x2 | x6 |[K:treble] x6 |] %145
V:6
 x6 | x6 | x6 | x6 | x6 | x6 | x6 | x6 | x6 | x6 | x6 | x6 |[K:bass] x6 | x3[K:treble] x3 | x6 | %15
[K:bass] x6 | x6 | x3[K:treble] x3 | x3[K:bass] x3 | x3[K:treble] x3 || x6 |[K:bass] x6 | %22
 x2[K:treble] x4 | x6 | x6 | x6 | x6 | x6 | x6 | x6 | x6 | x6 | x6 | x6 | x6 | x6 | x6 | x6 | x6 | %39
 x6 | x6 | x6 | x6 | !arpeggio!!stemless!^^F x5 |[K:bass] x3 !arpeggio!!stemless!E, x2 | %45
 x11/4[K:treble] x13/4 | x6 | x6 | x6 | x6 |[K:bass] x6 | x3[K:treble] x3 | x6 |[K:bass] x6 | x6 | %55
 x[K:treble] x5 | x6 |[K:bass] x6 | x6 | x2 ||[K:treble] x4 | x[K:bass] x5 | x2[K:treble] x4 | x6 | %64
[K:bass] x2[K:treble] x4 | x6 | x6 | x6 | x6 | x6 | x6 | x6 | x6 | x3 | x3 | x6 | x6 | x6 | %78
[K:bass] x6 | x6 | x6 |!8va(! x6 | x6!8va)! |[K:treble] x6 | x6 | x6 | x6 | x6 | x6 | x6 | x6 | %91
 x6 |[K:bass] x6 | x4[K:treble] x2 |[K:bass] x6 | x2[K:treble] x4 |[K:bass] x6 | x[K:treble] x5 | %98
 x3[K:bass] x3 | x[K:treble] x2 || x3 |[K:bass] x6 | .B,,/ x5/2[K:treble] x3 |[K:bass] x6 | %104
 .D,/ x5/2[K:treble] x3 |[K:bass] x6 | x[K:treble] x2[K:bass] x[K:treble] x2 | %107
[K:bass] x[K:treble] x5 | x[K:bass] x7/2[K:treble] x3/2 | x6 | x[K:bass] x7/2[K:treble] x3/2 | x6 | %112
 x[K:bass] x4[K:treble] x | x6 | x[K:bass] x4[K:treble] x | x6 | x6 |[K:bass] x6 | x6 | %119
 x3/2 ^^C,/ x/ D,/ x/ ^^G,/ x/ A,/ x/ [^^C,^^C]/ | x3/2[K:treble] x9/2 | x6 | x6 |[K:bass] x6 | %124
 x6 | x2[K:treble] x4 |[K:bass] x6 | x[K:treble] x2[K:bass] x[K:treble] x2 | %128
[K:bass] x[K:treble] x2[K:bass] x3 | x3[K:treble] x3 |[K:bass] x4[K:treble] x2 |[K:bass] x6 | x6 | %133
 x6 | x6 | x6 | x6 | x6 | x6 | x6 | x6 | x6 | x3[K:treble] x[K:bass] x2 | x6 |[K:treble] x6 |] %145
V:7
 x4!8va(! x2 | x6 | x6 | x6 | x6 | x2!8va)! x4 | x6 | x3!8va(! x3 | x6 | x2!8va)! x4 | %10
!8va(! x6!8va)! | x2!8va(! x4 | x6 | x3!8va)! x3 | x6 | x3!8va(! x3 | x6 | x6 | x6!8va)! | x6 || %20
 x6 | x6 | x6 | x6 | x6 | x6 |!8va(! x6 | x6 | x!8va)! x3!8va(! x2 | x6 | %30
 x3/2!8va)! x5/2!8va(! x2 | x6 | x3/2!8va)! x9/2 | x6 | x3!8va(! x3 | x6 | x6 | x6 | x6 | x6 | x6 | %41
 x6 | x6 | x6 | x6 | x6 | x6 | x6 | x6!8va)! | x2!8va(! x4 | x6 | x!8va)! x5 | x6 | x3!8va(! x3 | %54
 x6 | x!8va)! x5 | x6 | x6 |!8va(! x6!8va)! | x2 || x4 | x5!8va(! x | x3/2!8va)! x9/2 | %63
 x4!8va(! x2 | x3/2!8va)! x9/2 | x3!8va(! x3 | x6 | x6 | x6 | x6 | %70
 g'/4=a'/4g'/4a'/4 g' !>!=g !>!f x2 | x6 | x6 | x3 | x3 | x!8va)! x5 |!8va(! x6 | x6 | x6 | %79
 x3/2!8va)! x9/2 | x6 |!8va(! x6 | x6 | x6 | x6 | x6 | x6 | x6 | x6 | x6 | x6!8va)! | x2!8va(! x4 | %92
 x6 | x3!8va)! x3 | x6 | x3!8va(! x3 | x5!8va)! x | x6 | x6 | x3/2!8va(! x3/2!8va)! || x3 | x6 | %102
 x6 | x6 | x2!8va(! x!8va)! x3 | x6 |!8va(! x6 | x6 | x!8va)! x5 |!8va(! x6 | x!8va)! x5 | %111
 x!8va(! x5 | x!8va)! x3[K:bass] x2 |[K:treble] x6 | x4[K:bass] x2 |[K:treble] x!8va(! x5!8va)! | %116
 x6 | x6 | x6 | x6 | x6 | %121
!8va(! x/!8va)! x/!8va(! x/!8va)! x/!8va(! x/!8va)! x/!8va(! x/!8va)! x/!8va(! x/!8va)! x/!8va(! x/!8va)! x/ | %122
!8va(! x/!8va)! x/!8va(! x/!8va)! x/!8va(! x/!8va)! x/!8va(! x/!8va)! x/!8va(! x/!8va)! x/!8va(! x/!8va)! x/ | %123
!8va(! x/!8va)! x/!8va(! x/!8va)! x/!8va(! x/!8va)! x/!8va(! x/!8va)! x/!8va(! x/!8va)! x/!8va(! x/!8va)! x/ | %124
!8va(! x6 | x6 | x6!8va)! | x6 | x6 | x3!8va(! x3 | x3!8va)! x3 | x6 | x6 |!8va(! x6!8va)! | x6 | %135
 x6 | x2!8va(! x4 | x6 | x2!8va)! x4 | x6 | x6 | x2!8va(! x!8va)! x2!8va(! x | x6 | x!8va)! x5 | %144
 x6 |] %145

